!!!COM: Hoffmann von Fallersleben
!!!OTL: Do you know who has the most beautiful sheep?
!!!OTL@@DE: Wer hat die schönsten Schäfchen?
!!!ARE: Deutschland
**kern
*clefG2
*k[]
*M4/4
*MM 85
{4c
=1
4g
4g
4f
4f
=2
2e
4d}
{4g
=3
4g
4c
4f
4e
=4
2d}
4r
{4d
=5
4f
4f
4e
4e
=6
2a
4g}
{4f
=7
4e
4e
4d
4d
=8
2e}
4r
==
*-